X:1
T:James Gibb editions
T:#
T:Hütet euch, dass eure Herzen, SWV 351 - Schütz
%%score 1 2 3 4
L:1/8
Q:1/4=84
M:4/4
K:C
V:1 treble nm="Violin I" snm="Vn I"
V:2 treble nm="Violin II" snm="Vn II"
V:3 treble nm="Bass" snm="B"
V:4 bass nm="Continuo"
V:1
"^Luke 21:34-36" z2"^t'""^Hütet euch, dass eure Herzen, SWV 351""^Heinrich Schütz\n(1585-1672)""^Symphonia"[Q:1/4=80] a4 e2 | %1
 d4 z2 f2 | g2 a4 g2 | f4 e2 c2- | c2 ^G2 A4 | z2 c2 d2 e2- | e2 d2 c4 | B2 g2 f2 d2 | e2 f2 g4 | %9
 ^f4 z4 |[Q:1/4=80][Q:1/4=80][Q:1/4=80][Q:1/4=80] z4 z2 z a | g2 e2 ^f2 g2- | g2 =f2 e4 | d8 | z8 | %15
 z2 a4 e2 | d4 z4 | z8 | z4 z2 f2 | ^c4 daaa | a4 a2 _bb | _b2 a2 g2 c2 | z2 c'4 g2 | fccc c4 | %24
 c2 cc d2 c2 | B8 | A4 z4 | z8 | z2 a2 f2 ed | eA a4 ^g2 | a4 z4 | z4 d2 d2 | e4 f2 d2 | %33
 d2 ^cB c4 | d2 z f a/g/f/e/ f/e/d/c/ | B2 z a c'/b/a/g/ a/g/f/e/ | %36
 d/c/_B/A/ B/A/G/F/ E/G/A/=B/ c/d/e/f/ | g/f/e/d/ g/f/e/d/ e/^c/B/A/ G/F/E/D/ | E2 z2 z4 | %39
[M:4/4] z8 | z8 | z8 | z8 |[M:4/4] z4 z2 e2- | e2 dc dcBA | ^G2 g4 fe | fedc B2 B2 | z2 ^GA Becd | %48
 ^G2 A2 A2 G2 | A4 z4 | z4 z2 a2- | a2 gf gfed | ^cccd eafg | ^c2 d2 d2 c2 | d8 || %55
[M:3/2][Q:1/4=168] z12 | d4 e2 ^f2 g4 | ^f4 g4 =f4 | e4 z4 z4 | g4 a2 b2 c'4 | b2 d2 e2 g2 ^f4 | %61
[M:3/2][Q:1/4=168][Q:1/4=168][Q:1/4=168][Q:1/4=168] g2 B2 c2 d2 e4 | c4 d2 f2 e4 | %63
 f2 a2 _b2 a2 g4 | f8 z4 | c4 d2 e2 f2 d2 | e2 f2 g2 f2 f3 e |"^presto"[Q:1/4=200] f8 z4 | %68
 _b4 b4 b4 | a12 | g8 z4 | g4 g4 g4 | f12 | e4 e4 e4 | d8 z4 | %75
[Q:1/4=200][Q:1/4=200][Q:1/4=200][Q:1/4=200] a4 a4 a4 | g8 a4- ||[M:4/4][Q:1/4=84] a4 g4 | a8 | %79
 z8 | z8 | z8 |[M:4/4][Q:1/4=90][Q:1/4=90][Q:1/4=90][Q:1/4=90] z8 | z8 | z8 | z8 | z8 | z8 | %88
[M:4/4] z8 | z8 | z8 | z8 ||[M:3/2][Q:1/4=168] z12 | z12 | g4 g4 g4 | f12 | e12 | z12 | %98
[M:3/2][Q:1/4=168][Q:1/4=168][Q:1/4=168][Q:1/4=168] e4 e4 e4 | d12 | c8 z4 | z12 | c4 c4 c4 | %103
 _B12 | A8 z4 | z12 | A4 A4 A4 | G12- ||[M:4/4][Q:1/4=90][Q:1/4=90][Q:1/4=90][Q:1/4=90] G4 ^F2 E2 | %109
 ^F2 ^fg a2 a2 | _b6 a2 | g4 a2 AA | _BdcB A2 A2 |[M:4/4] z2 aa g2 g2 | f2 f2 e2 e2 | d4 z2 AA | %116
 defg a2 ae | fgab c'2 c'2 | z8 | z2 gg f2 f2 | e2 e4 d2- | d2 c4 B2 | c4 z2 dd | d6 d2 | %124
 z2 e4 d2 | c4 B2 A2 | B8 | A2 ee fagf | e2 e2 defg | a2 a2 z4 | z2 c'c' _b2 b2 | a6 g2- | %132
 g2 f4 e2 | f4 z2 gg | g6 g2 | z4 z2 d2- | d2 c2 c4- | c4 B4 | c4 z2 ff | f6 f2 | z2 a4 g2 | %141
 f4 e2 d2 | e8 | d16 |] %144
V:2
 z2 f4 ^c2 | d4 z2 d2 | e2 f4 e2- | e2 d2 e2 e2- | e2 B2 A4 | z2 A2 B2 c2- | c2 B4 A2 | %7
 B2 e2 d2 B2 | ^c2 d4 c2 | d2 z a g2 e2 | ^f2 g4 =f2 | e2 z e d2 B2 | ^c2 d4 c2 | d8 | z8 | %15
 z2 f4 ^c2 | d4 z4 | z8 | z4 z2 a2- | a2 e2 d4 | z fff f2 gg | g2 f4 e2 | f2 a4 e2 | f4 z AAA | %24
 A4 A2 AA | B2 A2 A2 ^G2 | A4 z2 d2 | c2 BA BE e2- | e d2 ^c d2 z f | e2 d=c B4 | ^c4 a2 a2 | %31
 _b8- | b4 a2 a2 | g8 | ^f2 z d =f/e/d/c/ d/c/B/A/ | ^G2 z f a/g/f/e/ f/e/d/c/ | %36
 _B/A/_G/F/ G/F/E/D/ ^C/E/F/G/ A/=B/c/d/ | e/f/g/f/ e/d/^c/B/ c/A/G/F/ E/D/^C/B,/ | ^C2 z2 z4 | %39
[M:4/4] z8 | z8 | z8 | z8 |[M:4/4] z8 | z8 | z2 e4 dc | dcBA ^G2 GA | BeBc ^G2 A2 | B2 c2 B4 | %49
 A4 z4 | z2 BB eaef | ^cccd e2 Af | eafg ^c2 d2 | e2 f2 e4 | d8 ||[M:3/2] z12 | z12 | A4 B2 c2 d4 | %58
 ^c4 d2 e2 f4 | d4 e2 g2 ^f4 | g2 b2 c'2 b2 a4 |[M:3/2] g4 z2 z2 z2 z2 | f4 g2 a2 _b4 | %63
 a2 c2 d2 f2 e4 | f6 c2 f2 g2 | a4 f4 z2 f2 | g2 a2 _b2 a2 g4 | f2 a2 a4 a4 | g4 d4 z2 z2 | %69
 f4 f4 f4 | e12 | d8 z2 z2 | a4 a4 a4 | g4 e4 z4 | g4 g4 g4 | f12 | e4 e4 e4 ||[M:4/4] d8 | ^c8 | %79
 z8 | z8 | z8 |[M:4/4] z8 | z8 | z8 | z8 | z8 | z8 |[M:4/4] z8 | z8 | z8 | z8 ||[M:3/2] f4 f4 f4 | %93
 e12 | d12 | z12 | g4 g4 g4 | f12 |[M:3/2] e8 z4 | z12 | e4 e4 e4 | d12 | c8 z4 | z12 | c4 c4 c4 | %105
 _B12 | A8 z2 z2 | E4 G4 A4 ||[M:4/4] _B4 A2 G2 | A2 de f4 | f2 g4 f2 | f2 e2 f2 cc | defg a2 aA | %113
[M:4/4] ABcd e2 e2 | z2 aa g2 g2 | f2 f2 e2 e2 | d4 z2 ^cc | defg a2 a2 | z2 ee d2 d2 | %119
 c2 c2 c2 B2 | c2 gg f2 f2 | e2 e2 d3 d | c4 z2 BB | B6 B2 | z4 z2 B2- | B2 A2 A4- | A4 ^G4 | %127
 A2 ^cc dfed | ^c2 c2 z4 | z2 AA defg | a2 a2 z4 | z2 c'c' _b2 b2 | a2 a2 g2 g2 | f4 z2 ee | %134
 e6 e2 | z2 g4 f2 | e4 d2 c2 | d8 | c4 z2 aa | a6 a2 | z4 z2 e2- | e2 d2 d4- | d4 ^c4 | d16 |] %144
V:3
 z8 | z8 | z8 | z8 | z8 | z8 | z8 | z8 | z8 | z8 |[M:4/4][K:bass] z8 | z8 | z8 | z8 | z2 F,4 ^C,2 | %15
w: ||||||||||||||Hü- tet|
 D,4 z4 | z2 A,4 E,2 | D,F,F,F, F,4 | F,2 G,G, G,2 F,2 | (E,F,/G,/ A,2) D,4 | z8 | z2 C4 G,2 | %22
w: euch,|hü- tet|euch, dass eu- re Her-|zen nicht be- schwe- ret|wer\- * * * den,||hü- tet|
 F,4 z4 | z4 z F,F,F, | F,4 F,2 F,F, | G,2 F,2 E,4 | A,,2 z A, F,2 E,D, | (E,A,, A,4 ^G,2) | %28
w: euch,|dass eu- re|Her- zen nicht be-|schwe- ret wer-|den, mit Fre- ssen und|Sau\- * * *|
 A,4 z2 D,2 | C,2 B,,A,, E,4 | A,,4 F,2 F,2 | G,8- | G,4 F,2 F,2 | E,8 | %34
w: fen, mit|Fre- ssen und Sau-|fen und mit|Sor\-|* gen der|Nah-|
 D,2 z D, D,/D,/D,/D,/ D,/D,/D,/D,/ | E,2 z F, F,/F,/F,/F,/ F,/F,/F,/F,/ | G,2 z G,/G,/ A,2 z A, | %37
w: rung, und kom- me die- ser Tag schnell ü- ber|euch, und kom- me die- ser Tag schnell ü- ber|euch, ü- ber euch, und|
 _B,/B,/B,/B,/ B,/B,/B,/B,/ A,2 z2 | z4 z2 A,2- | A,2 G,^F, G,=F,E,D, | A,2 A,2 z2 A,,A,, | %41
w: kom- me die- ser Tag schnell ü- ber euch.|Denn|* wie ein Fall- strick wird er|kom- men, ü- ber|
 D,F,_B,,D, G,,2 ^F,,2 | A,,4 D,,4 | z2 A,,B,, C,E,A,,C, | ^G,,2 A,,2 F,,4 | E,,8 | z8 | z8 | z8 | %49
w: al- le die auf Er- den|woh- nen,|ü- ber al- le die auf|Er- den woh-|nen,||||
 z2 A,4 G,F, | G,F,E,D, ^C,C,C,D, | E,A,E,F, ^C,2 D,2 | (A,4- A,>E, F,>D, | %53
w: denn wie ein|Fall- strick wird er kom- men, ü- ber|al- le die auf Er- den|woh\- * * * *|
 A,,>_B,, F,,>G,, A,,4) | D,,8 ||[M:3/2] D,4 E,2 ^F,2 G,4 | B,,4 C,4 E,4 | D,4 z4 z4 | %58
w: |nen,|So seid nun wa-|cker al- le-|zeit,|
 A,4 B,2 C2 D4 | B,4 C4 A,4 | G,4 z4 z4 |[M:3/2] G,4 A,2 B,2 C4 | A,4 _B,4 G,4 | F,4 z2 z2 C,4 | %64
w: so seid nun wa-|cker al- le-|zeit,|so seid nun wa-|cker al- le-|zeit, so|
 F,2 G,2 A,4 F,4 | z2 F,,2 _B,,2 C,2 D,4 | C,4 _B,,4 C,4 | F,8 z4 | z12 | z12 | C4 C4 C4 | _B,12 | %72
w: seid nun wa- cker,|so seid nun wa-|cker al- le-|zeit,|||und be- tet,|be-|
 A,8 z4 | z12 | z12 | z12 | C4 C4 C4 ||[M:4/4] _B,8 | A,4 z4 | D,>C, C,4 B,,2 | z4 G,>F, F,2- | %81
w: tet,||||und be- tet,|be-|tet,|be- tet, be- tet,|be- tet, be\-|
 F,2 E,2 z2 E,^F, |[M:4/4] ^G,2 G,2 A,2 ^C,2 | E,4 A,,2 A,A, | F,G,A,B, C2 C2 | z2 C,C, F,2 D,2 | %86
w: * tet, dass ihr|wür- tig wer- den|mö- get zu ent-|flie- hen die- sem al- len,|die- sem al- len,|
 E,2 C,2 G,3 G, | C,4 z2 G,G, | G,6 G,2 | z2 A,4 G,2 | (F,4 E,2 D,2 | A,4) A,,4 ||[M:3/2] D,8 z4 | %93
w: das ge- sche- hen|soll, und zu|ste- hen|für des|Men\- * *|* schen|Sohn,|
 C4 C4 C4 | _B,12 | A,8 z4 | z12 | A,4 A,4 A,4 |[M:3/2] ^G,8 G,4 | z4 ^G,4 G,4 | A,8 A,4 | %101
w: und be- tet,|be-|~tet,||und be- tet,|be- tet,|be- tet,|be- tet,|
 F,4 F,4 F,4 | E,8 E,4 | z4 E,4 E,4 | F,8 F,4 | D,4 D,4 D,4 | ^C,8 C,4 | z4 ^C,4 C,4 || %108
w: und be- tet,|be- tet,|be- tet,|be- tet,|und be- tet,|be- tet,|be- tet,|
[M:4/4] D,8 | D,4 z2 D,=C, | _B,,2 B,,2 C,2 A,,2 | C,4 F,,2 F,,F,, | _B,,C,D,E, F,2 F,2 | %113
w: be-|tet, dass ihr|wür- tig wer- den|mö- get zu ent-|flie- hen die- sem al- len,|
[M:4/4] z4 z2 C,C, | F,G,A,B, C2 C2 | z2 DD C2 C2 | _B,2 B,2 A,2 A,2 | D,4 z2 A,A, | %118
w: zu ent-|flie- hen die- sem al- len,|die- sem al- len,|das ge- sche- hen|soll, die- sem|
 G,2 G,2 F,2 F,2 | E,2 E,2 D,4 | z2 C,C, D,E,F,G, | A,B,CE, G,2 G,,2 | C,4 z2 G,G, | G,6 G,2 | %124
w: al- len, das ge-|sche- hen soll,|zu ent- flie- hen die- sem|al- len, das ge- sche- hen|soll, und zu|ste- hen|
 z2 C,4 D,2 | F,8 | E,8 | A,,2 A,,A,, D,E,F,G, | A,2 A,2 z2 DD | C2 C2 _B,2 B,2 | A,2 A,2 G,4 | %131
w: für des|Men-|schen|Sohn, zu ent- flie- hen die- sem|al- len, die- sem|al- len, das ge-|sche- hen soll,|
 z2 F,,F,, G,,A,,_B,,C, | D,E,F,A,, C,2 C,2 | F,,4 z2 C,C, | C,6 C,2 | z2 E,4 F,2 | A,8 | G,8 | %138
w: zu ent- flie- hen die- sem|al- len, das ge- sche- hen|soll, und zu|ste- hen|für des|Men-|schen|
 C,4 z2 D,D, | D,6 D,2 | z2 F,4 G,2 | _B,8 | A,8 | D,16 |] %144
w: Sohn, und zu|ste- hen|für des|Men-|schen|Sohn.|
V:4
 D,3 E, F,G, A,2 | D,4 z2 D2 | C2 A,2 B,2 ^C2 | D4 A,2 A,,B,, | C,D, E,2 A,,4 | z2 A,2 G,2 E,2 | %6
w: ||6 * * *|||* 6 *|
w: ||||||
 ^F,2 ^G,2 A,4 | E,2 E,2 =F,2 =G,2- | G,2 F,2 x2- x2 | D,3 D, B,,2 C,2- | C,2 B,,2 ^C,2 D,2- | %11
w: |* * 6 3|4 6 7|* * 6 3|4 6 * *|
w: |||||
 D,2 ^C,2 D,2 E,2 | x2- x4 x2 | D,8 | F,6 ^C,2 | D,2 D,E, F,G, A,2 | D,2 D,,E,, F,,G,, A,,2 | %17
w: 4 6 * *||||||
w: ||||||
 D,,4 _B,,4- | B,,2 G,,2 (x2- x2 | A,,4) D,4 | D,6 _B,,2 | x2- x4 x2 | F,,2 F,G, A,B, C2 | %23
w: |||* 6|3||
w: ||||||
 F,4 F,4 | F,4 x2- x2 | G,2 F,2 x2- x2 | A,,4 D,4 | A,,2 F,2 x2-xD, | ^C,D, x-x D,4 | %29
w: |* 6|* * 4||* * 4 *|* * 4 *|
w: ||||||
 C,2 B,,A,, x2- x2 | A,,4 F,2 F,2 | G,8- | G,4 F,4 | x4- x4 | D,2 z D, D,4 | E,2 z F, F,4 | %36
w: 6 * * 4|||6 6|7|||
w: |||||||
 G,2 z G, A,2 z A, | _B,4 A,2 _B,,2 | A,,2 z2 A,4 | ^F,4 G,2 D,2 | A,4 A,,4 | %41
w: |6 * 6||||
w: |||||
 D,2 _B,,2 G,,2 ^F,,2 | A,,4 D,,4 | A,,4 C,2 A,,2 | ^G,,2 A,,2 F,,4 | x2- x2 E,,4 | D,4 E,4- | %47
w: |||* * 6|||
w: ||||||
 E,4 E,4- | E,2 C,2 x2- x2 | A,,8 | x2- x2 A,,3 D,, | A,,4 ^C,2 D,2 | x2- x2 (x2- x2 | %53
w: |* 6 4||5 * *||5 5|
w: ||||||
 A,,2) F,,2 x2- x2 | D,,8 ||[M:3/2] D,4 E,2 ^F,2 G,4 | B,,4 C,4 E,4 | D,4 G,4 D,4 | A,4 B,2 C2 D4 | %59
w: * 6 4||||||
w: ||||||
 B,4 C4 A,4 | G,4 C,4 D,4 |[M:3/2] G,4 A,2 B,2 C4 | A,4 _B,4 G,4 | F,4 _B,,4 C,4 | %64
w: 6 * 6|||* * 6||
w: |||||
 F,2 G,2 A,4 F,4- | F,2 F,,2 _B,,2 C,2 D,4 | C,4 x2- x2 x2- x2 | F,,8 D,4 | G,12 | F,12 | C12 | %71
w: ||* 6 4|||||
w: |||||||
 _B,12 | A,12 | C,12 | _B,,12 | A,,12 | C8 C4 ||[M:4/4] x4- x4 | A,8 | D,2 C,2 x2- x2 | %80
w: 6|6||6|6|* 6|7||* * 4|
w: |||||||||
 G,4 E,2 F,2 | x2- x2 C,4 |[M:4/4] E,4 A,2 ^C,2 | E,4 A,,2 A,2 | F,4 F,,G,,A,,B,, | C,4 F,2 D,2 | %86
w: |4 *|||||
w: ||||||
 E,2 C,2 G,4 | C,6 C,C, | C,6 C,2 | F,,4 x2- x2 | _B,,8 | A,,8 ||[M:3/2] D,12 | C12 | _B,12 | %95
w: |||* 9|||||6|
w: |||||||||
 A,12 | C12 | A,12 |[M:3/2] ^G,12- | G,12 | A,12 | F,12 | E,12- | E,12 | F,12 | D,12 | ^C,12- | %107
w: 6||6|6|5||6|6|5||6|6|
w: ||||||||||||
 C,12 ||[M:4/4] x4- x4 | D,4- D,2 D,C, | x2- x2 C,2 A,,2 | x2- x2 F,,4 | _B,,C,D,E, F,4 | %113
w: 5|6||5 * 6|4 *||
w: |4|||||
[M:4/4] F,,G,,A,,=B,, C,4 | F,4 C,4 | D,4 x2- x2 | _B,,4 A,,4 | D,4 A,4 | x2- x2 F,4 | E,4 x2- x2 | %120
w: ||* 5|||5 6|6 7|
w: |||||||
 C,4 D,4 | A,2 E,2 x2- x2 | C,4 z2 G,,G,, | G,,6 G,,2 | z2 C,4 D,2 | x4- x4 | x4- x4 | A,,4 D,4 | %128
w: |* 6 4|||* 6|4|4||
w: ||||||||
 A,,4 D,4 | C,4 _B,,4 | A,,4 G,,4 | F,,4 G,,4 | D,2 A,,2 x2- x2 | F,,4 z2 C,C, | C,6 C,2 | %135
w: |6 *|||* 6 4|||
w: |||||||
 z2 E,4 F,2 | x4- x4 | x4- x4 | C,4 z2 D,2 | D,6 D,2 | z2 F,4 G,2 | x4- x4 | x4- x4 | D,16 |] %144
w: |4|4|||* 6|4|4||
w: |||||||||

